assets/noto-color-emoji-svg/cleaned/1f939-1f3ff-200d-2642-fe0f.svg

<?xml version="1.0" encoding="UTF-8" standalone="no"?>
<!-- Generator: Adobe Illustrator 19.2.1, SVG Export Plug-In . SVG Version: 6.00 Build 0)  -->

<svg
   xmlns:dc="http://purl.org/dc/elements/1.1/"
   xmlns:cc="http://creativecommons.org/ns#"
   xmlns:rdf="http://www.w3.org/1999/02/22-rdf-syntax-ns#"
   xmlns:svg="http://www.w3.org/2000/svg"
   xmlns="http://www.w3.org/2000/svg"
   xmlns:xlink="http://www.w3.org/1999/xlink"
   xmlns:sodipodi="http://sodipodi.sourceforge.net/DTD/sodipodi-0.dtd"
   xmlns:inkscape="http://www.inkscape.org/namespaces/inkscape"
   version="1.1"
   id="图层_1"
   x="0px"
   y="0px"
   viewBox="0 0 128 128"
   style="enable-background:new 0 0 128 128;"
   xml:space="preserve"
   inkscape:version="0.91 r13725"
   sodipodi:docname="1f939-1f3ff-200d-2642-fe0f.svg"><metadata
     id="metadata516"><rdf:RDF><cc:Work
         rdf:about=""><dc:format>image/svg+xml</dc:format><dc:type
           rdf:resource="http://purl.org/dc/dcmitype/StillImage" /><dc:title></dc:title></cc:Work></rdf:RDF></metadata><defs
     id="defs514" /><sodipodi:namedview
     pagecolor="#ffffff"
     bordercolor="#666666"
     borderopacity="1"
     objecttolerance="10"
     gridtolerance="10"
     guidetolerance="10"
     inkscape:pageopacity="0"
     inkscape:pageshadow="2"
     inkscape:window-width="640"
     inkscape:window-height="480"
     id="namedview512"
     showgrid="false"
     inkscape:zoom="1.8101934"
     inkscape:cx="64"
     inkscape:cy="64"
     inkscape:window-x="0"
     inkscape:window-y="0"
     inkscape:window-maximized="0"
     inkscape:current-layer="图层_1" /><g
     id="g351"><g
       id="g353"><path
         style="fill:#00BFA5;"
         d="M 64 74.970703 C 59.57 75.050703 61.420312 75.210937 59.570312 75.210938 C 51.320312 75.210938 39.75 76.760547 32.5 89.810547 L 22.199219 77.230469 C 21.999219 76.680469 21.399844 76.380547 20.839844 76.560547 L 12.150391 79.169922 C 11.610391 79.339922 11.290391 79.889453 11.400391 80.439453 C 11.400391 80.439453 20.359141 100.90945 20.369141 100.93945 C 22.159141 104.85945 25.359531 110.13086 30.519531 110.13086 C 36.289531 110.13086 39.809609 106.74945 41.349609 104.93945 L 41.349609 128 L 64 128 L 86.650391 128 L 86.650391 104.93945 C 88.190391 106.74945 91.710469 110.13086 97.480469 110.13086 C 102.64047 110.13086 105.84086 104.85945 107.63086 100.93945 C 107.64086 100.90945 116.59961 80.439453 116.59961 80.439453 C 116.70961 79.889453 116.38961 79.339922 115.84961 79.169922 L 107.16016 76.560547 C 106.60016 76.380547 106.00078 76.680469 105.80078 77.230469 L 95.5 89.820312 C 88.25 76.770313 76.679688 75.220703 68.429688 75.220703 C 66.579687 75.210703 68.43 75.050703 64 74.970703 z "
         id="path355" /><g
         id="XMLID_1575_"><path
           id="XMLID_1577_"
           style="fill:#E0E0E0;"
           d="M21.46,64.57c-0.88,0.36-1.6,0.95-1.89,1.73c-0.22,0.58-0.25,0.79-0.42,2.39     c-0.85,1.45-3-1.08-3.65-1.92c-0.04-0.05-3.68-5.08-4.27-5.96c-0.69-1.03-1.54-1.34-2.25-0.87c-0.76,0.51-0.36,1.79-0.01,2.32     c0.54,0.81,1.72,2.8,3.06,4.63c0,0,0.12,0.19,0.1,0.25c-0.09,0.48-0.62,0.28-0.62,0.28c-1.24-1.17-4.09-4.15-4.74-4.83     c-1.12-1.18-2.01-1.41-2.63-0.83c-0.82,0.76-0.41,1.7,0.69,2.85c0.66,0.69,2.7,2.75,4.53,4.75c0.2,0.82-0.59,0.69-0.59,0.69     c-1.99-1.66-4.01-3.49-4.65-3.98c-1.03-0.8-1.76-0.93-2.33-0.3c-0.6,0.66-0.33,1.4,0.8,2.39c0.81,0.71,3.31,2.96,4.63,4.07     c0.53,0.9-0.37,0.96-0.37,0.96c-2.04-1.49-2.51-1.78-3.06-2.12c-1.15-0.73-1.72-0.75-2.18-0.03c-0.5,0.81,0.04,1.43,0.99,2.18     c0.64,0.5,5,3.82,6.53,5.33c2.35,2.32,5.56,2.39,7.26,1.76c2.39-0.88,4.51-2.1,5.46-4.99c0.23-0.7,0.05-2.24,0.1-2.97     c0.01-0.12-0.13-2.66-0.06-2.93c0.18-0.7,0.37-1.39,0.54-1.88c0.18-0.53,0.33-1.09,0.38-1.35     C23.05,64.76,22.27,64.24,21.46,64.57z" /></g></g><g
       id="g359"><g
         id="XMLID_1576_"><path
           id="XMLID_1578_"
           style="fill:#E0E0E0;"
           d="M106.54,64.57c0.88,0.36,1.6,0.95,1.89,1.73c0.22,0.58,0.25,0.79,0.42,2.39     c0.85,1.45,3-1.08,3.65-1.92c0.04-0.05,3.68-5.08,4.27-5.96c0.69-1.03,1.54-1.34,2.25-0.87c0.76,0.51,0.36,1.79,0.01,2.32     c-0.54,0.81-1.72,2.8-3.06,4.63c0,0-0.12,0.19-0.1,0.25c0.09,0.48,0.62,0.28,0.62,0.28c1.24-1.17,4.09-4.15,4.74-4.83     c1.12-1.18,2.01-1.41,2.63-0.83c0.82,0.76,0.41,1.7-0.69,2.85c-0.66,0.69-2.7,2.75-4.53,4.75c-0.2,0.82,0.59,0.69,0.59,0.69     c1.99-1.66,4.01-3.49,4.65-3.98c1.03-0.8,1.76-0.93,2.33-0.3c0.6,0.66,0.33,1.4-0.8,2.39c-0.81,0.71-3.31,2.96-4.63,4.07     c-0.53,0.9,0.37,0.96,0.37,0.96c2.04-1.49,2.51-1.78,3.06-2.12c1.15-0.73,1.72-0.75,2.18-0.03c0.5,0.81-0.04,1.43-0.99,2.18     c-0.64,0.5-5,3.82-6.53,5.33c-2.35,2.32-5.56,2.39-7.26,1.76c-2.39-0.88-4.51-2.1-5.46-4.99c-0.23-0.7-0.05-2.24-0.1-2.97     c-0.01-0.12,0.13-2.66,0.06-2.93c-0.18-0.7-0.37-1.39-0.54-1.88c-0.18-0.53-0.33-1.09-0.38-1.35     C104.95,64.76,105.73,64.24,106.54,64.57z" /></g></g><g
       id="g365"><path
         id="XMLID_1570_"
         style="fill:#35201A;"
         d="M63.97,82.53L63.97,82.53c-3.67,0-6.65-2.98-6.65-6.65v-5.69h13.3v5.69    C70.62,79.55,67.64,82.53,63.97,82.53z" /><g
         id="XMLID_1560_"><g
           id="XMLID_1567_"><path
             id="XMLID_1569_"
             style="fill:#563E37;"
             d="M83.98,47.62c0,0,3.67,0.64,3.67,4.59c0,3.49-2.68,4.86-5.35,4.86v-9.45H83.98z      " /><path
             id="XMLID_1568_"
             style="fill:#563E37;"
             d="M43.96,47.62c0,0-3.67,0.64-3.67,4.59c0,3.49,2.68,4.86,5.35,4.86v-9.45H43.96z      " /></g><path
           id="XMLID_1566_"
           style="fill:#70534A;"
           d="M63.97,21.74c-15.81,0-19.95,12.26-19.95,29.48c0,17.86,11.48,22.47,19.95,22.47     c8.35,0,19.95-4.48,19.95-22.47C83.92,34,79.78,21.74,63.97,21.74z" /><path
           id="XMLID_1565_"
           style="fill:#232020;"
           d="M57.4,52.82c0,1.78-1.19,3.22-2.66,3.22c-1.47,0-2.67-1.44-2.67-3.22     c0-1.78,1.2-3.22,2.67-3.22C56.21,49.6,57.4,51.04,57.4,52.82" /><path
           id="XMLID_1564_"
           style="fill:#232020;"
           d="M70.53,52.82c0,1.78,1.19,3.22,2.67,3.22c1.47,0,2.67-1.44,2.67-3.22     c0-1.78-1.2-3.22-2.67-3.22C71.72,49.6,70.53,51.04,70.53,52.82" /><path
           id="XMLID_1563_"
           style="fill:#232020;"
           d="M69.74,63.7c-0.81,0-5.77,0-5.77,0s-4.97,0-5.77,0c-0.66,0-0.95,0.45-0.51,1.11     c0.61,0.93,2.89,2.73,6.28,2.73c3.39,0,5.67-1.79,6.28-2.73C70.69,64.14,70.4,63.7,69.74,63.7z" /><path
           id="XMLID_1562_"
           style="fill:#3C2B24;"
           d="M66.76,58.79c-0.98,0.28-2,0.41-2.79,0.41c-0.79,0-1.81-0.14-2.79-0.41     c-0.42-0.12-0.59,0.28-0.43,0.54c0.31,0.55,1.57,1.65,3.22,1.65c1.66,0,2.91-1.11,3.22-1.65C67.34,59.07,67.18,58.67,66.76,58.79     z" /><path
           id="XMLID_1561_"
           style="fill:#312D2D;"
           d="M64.44,19.49c0,0-0.31-0.01-0.44-0.01c-0.13,0-0.44,0.01-0.44,0.01     c-17.06,0.33-22.21,10.6-22.21,17.72c0,6.92,0.01,12,0.01,12s0.27-0.28,0.77-0.67c0.53-0.42,1.13-0.65,1.13-0.65l0.86,5.78     l5.69-11.88c0.03-0.07,0.11-0.12,0.19-0.11l3.37,0.37c3.39,0.38,6.79,0.56,10.19,0.57v0.01c0.15,0,0.29,0,0.44,0     c0.15,0,0.29,0,0.44,0v-0.01c3.4-0.01,6.81-0.19,10.19-0.57l3.37-0.37c0.08-0.01,0.16,0.03,0.19,0.11l5.69,11.88l0.86-5.78     c0,0,0.59,0.23,1.13,0.65c0.5,0.39,0.77,0.67,0.77,0.67s0.01-5.08,0.01-12C86.65,30.09,81.51,19.82,64.44,19.49z" /></g><g
         id="g378"><ellipse
           style="fill:#6E7177;"
           cx="64"
           cy="40.8"
           rx="26.48"
           ry="6.92"
           id="ellipse380" /><ellipse
           style="fill:#8E8E8E;"
           cx="64"
           cy="39.55"
           rx="26.48"
           ry="6.92"
           id="ellipse382" /><g
           id="g384"><defs
             id="defs386"><path
               id="SVGID_1_"
               d="M87.64,38.61L87.64,38.61c-0.39-7.45-6.01-19.97-23.18-20.29c0,0-0.32-0.01-0.46-0.01       c-0.14,0-0.46,0.01-0.46,0.01c-17.17,0.32-22.79,12.84-23.18,20.29l0,0C40.36,44.45,87.64,44.45,87.64,38.61z" /></defs><use
             xlink:href="#SVGID_1_"
             style="overflow:visible;fill:#6E7177;"
             id="use389" /><clipPath
             id="SVGID_2_"><use
               xlink:href="#SVGID_1_"
               style="overflow:visible;"
               id="use392" /></clipPath></g></g></g><rect
       x="41.35"
       y="113.68"
       style="fill:#6E7177;"
       width="45.3"
       height="14.32"
       id="rect394" /><g
       id="g396"><polygon
         style="fill:#6E7177;"
         points="52.55,122.14 46.58,122.14 46.58,76.36 52.55,74.99   "
         id="polygon398" /><polygon
         style="fill:#6E7177;"
         points="81.42,122.14 75.45,122.14 75.45,74.99 81.42,76.36   "
         id="polygon400" /></g><g
       id="g402"><g
         id="g404"><g
           id="g406"><path
             d="M65.48,80.28c1.23-0.84,2.39-1.46,3.56-2.21c0.94-0.6,2.53-1.72,4.03-1.15c1.27,0.48,0.82,2.21,0.82,4.48      c0,2.66,0.45,4.21-0.55,4.65c-1.36,0.6-3.13-0.46-4.62-1.11c-0.85-0.37-3.27-1.47-3.68-2.11      C64.62,82.19,64.64,80.69,65.48,80.28z"
             id="path408" /><path
             style="fill:#444444;"
             d="M71.74,80.05c0.03,0.19-1.32,0.62-3,0.97c-1.68,0.35-3.07,0.48-3.1,0.29      c-0.03-0.19,1.32-0.62,3-0.97S71.71,79.86,71.74,80.05z"
             id="path410" /><path
             style="fill:#444444;"
             d="M71.76,83.21c-0.02,0.19-1.41,0.14-3.11-0.1c-1.7-0.24-3.06-0.59-3.04-0.78      c0.02-0.19,1.41-0.14,3.11,0.1C70.42,82.67,71.78,83.02,71.76,83.21z"
             id="path412" /></g><g
           id="g414"><path
             d="M62.52,80.28c-1.23-0.84-2.39-1.46-3.56-2.21c-0.94-0.6-2.53-1.72-4.03-1.15c-1.27,0.48-0.82,2.21-0.82,4.48      c0,2.66-0.45,4.21,0.55,4.65c1.36,0.6,3.13-0.46,4.62-1.11c0.85-0.37,3.27-1.47,3.68-2.11C63.38,82.19,63.36,80.69,62.52,80.28z      "
             id="path416" /><path
             style="fill:#444444;"
             d="M56.26,80.05c-0.03,0.19,1.32,0.62,3,0.97s3.07,0.48,3.1,0.29s-1.32-0.62-3-0.97      S56.29,79.86,56.26,80.05z"
             id="path418" /><path
             style="fill:#444444;"
             d="M56.24,83.21c0.02,0.19,1.41,0.14,3.11-0.1c1.7-0.24,3.06-0.59,3.04-0.78      c-0.02-0.19-1.41-0.14-3.11,0.1C57.58,82.67,56.22,83.02,56.24,83.21z"
             id="path420" /></g></g><path
         d="M66.71,81.89c0,1.54-1.21,2.43-2.71,2.43c-1.5,0-2.71-0.89-2.71-2.43S61.97,79.1,64,79.1    C65.95,79.1,66.71,80.35,66.71,81.89z"
         id="path422" /></g></g><g
     id="g424"><circle
       style="fill:#FF3D00;"
       cx="12.13"
       cy="66.46"
       r="7.74"
       id="circle426" /><circle
       style="fill:#FFFFFF;"
       cx="9.82"
       cy="64"
       r="2.31"
       id="circle428" /></g><g
     id="g430"><circle
       style="fill:#00C853;"
       cx="22.85"
       cy="30.89"
       r="7.74"
       id="circle432" /><circle
       style="fill:#FFFFFF;"
       cx="20.53"
       cy="28.43"
       r="2.31"
       id="circle434" /></g><g
     id="g436"><circle
       style="fill:#FF6D00;"
       cx="56.26"
       cy="9.47"
       r="7.74"
       id="circle438" /><circle
       style="fill:#FFFFFF;"
       cx="53.95"
       cy="7.02"
       r="2.31"
       id="circle440" /></g><g
     id="g442"><circle
       style="fill:#AA00FF;"
       cx="95.97"
       cy="19.48"
       r="7.74"
       id="circle444" /><circle
       style="fill:#FFFFFF;"
       cx="93.65"
       cy="17.03"
       r="2.31"
       id="circle446" /></g><g
     id="g448"><circle
       style="fill:#29B6F6;"
       cx="115.87"
       cy="49.6"
       r="7.74"
       id="circle450" /><circle
       style="fill:#FFFFFF;"
       cx="113.55"
       cy="47.14"
       r="2.31"
       id="circle452" /></g></svg>

<?xml version="1.0" encoding="UTF-8" standalone="no"?>
<!-- Generator: Adobe Illustrator 19.2.1, SVG Export Plug-In . SVG Version: 6.00 Build 0)  -->

<svg
   xmlns:dc="http://purl.org/dc/elements/1.1/"
   xmlns:cc="http://creativecommons.org/ns#"
   xmlns:rdf="http://www.w3.org/1999/02/22-rdf-syntax-ns#"
   xmlns:svg="http://www.w3.org/2000/svg"
   xmlns="http://www.w3.org/2000/svg"
   xmlns:xlink="http://www.w3.org/1999/xlink"
   xmlns:sodipodi="http://sodipodi.sourceforge.net/DTD/sodipodi-0.dtd"
   xmlns:inkscape="http://www.inkscape.org/namespaces/inkscape"
   version="1.1"
   id="图层_1"
   x="0px"
   y="0px"
   viewBox="0 0 128 128"
   style="enable-background:new 0 0 128 128;"
   xml:space="preserve"
   inkscape:version="0.91 r13725"
   sodipodi:docname="1f939-1f3ff-200d-2642-fe0f.svg"><metadata
     id="metadata516"><rdf:RDF><cc:Work
         rdf:about=""><dc:format>image/svg+xml</dc:format><dc:type
           rdf:resource="http://purl.org/dc/dcmitype/StillImage" /><dc:title></dc:title></cc:Work></rdf:RDF></metadata><defs
     id="defs514" /><sodipodi:namedview
     pagecolor="#ffffff"
     bordercolor="#666666"
     borderopacity="1"
     objecttolerance="10"
     gridtolerance="10"
     guidetolerance="10"
     inkscape:pageopacity="0"
     inkscape:pageshadow="2"
     inkscape:window-width="640"
     inkscape:window-height="480"
     id="namedview512"
     showgrid="false"
     inkscape:zoom="1.84375"
     inkscape:cx="64"
     inkscape:cy="64"
     inkscape:window-x="0"
     inkscape:window-y="0"
     inkscape:window-maximized="0"
     inkscape:current-layer="图层_1" /><g
     id="g351"><g
       id="g353"><path
         style="fill:#00BFA5;"
         d="M59.57,75.21c-8.25,0-19.82,1.55-27.07,14.6L22.2,77.23c-0.2-0.55-0.8-0.85-1.36-0.67l-8.69,2.61    c-0.54,0.17-0.86,0.72-0.75,1.27c0,0,8.96,20.47,8.97,20.5c1.79,3.92,4.99,9.19,10.15,9.19c5.77,0,9.29-3.38,10.83-5.19l0,23.06    H64V74.97C59.57,75.05,61.42,75.21,59.57,75.21z"
         id="path355" /><g
         id="XMLID_1575_"><path
           id="XMLID_1577_"
           style="fill:#E0E0E0;"
           d="M21.46,64.57c-0.88,0.36-1.6,0.95-1.89,1.73c-0.22,0.58-0.25,0.79-0.42,2.39     c-0.85,1.45-3-1.08-3.65-1.92c-0.04-0.05-3.68-5.08-4.27-5.96c-0.69-1.03-1.54-1.34-2.25-0.87c-0.76,0.51-0.36,1.79-0.01,2.32     c0.54,0.81,1.72,2.8,3.06,4.63c0,0,0.12,0.19,0.1,0.25c-0.09,0.48-0.62,0.28-0.62,0.28c-1.24-1.17-4.09-4.15-4.74-4.83     c-1.12-1.18-2.01-1.41-2.63-0.83c-0.82,0.76-0.41,1.7,0.69,2.85c0.66,0.69,2.7,2.75,4.53,4.75c0.2,0.82-0.59,0.69-0.59,0.69     c-1.99-1.66-4.01-3.49-4.65-3.98c-1.03-0.8-1.76-0.93-2.33-0.3c-0.6,0.66-0.33,1.4,0.8,2.39c0.81,0.71,3.31,2.96,4.63,4.07     c0.53,0.9-0.37,0.96-0.37,0.96c-2.04-1.49-2.51-1.78-3.06-2.12c-1.15-0.73-1.72-0.75-2.18-0.03c-0.5,0.81,0.04,1.43,0.99,2.18     c0.64,0.5,5,3.82,6.53,5.33c2.35,2.32,5.56,2.39,7.26,1.76c2.39-0.88,4.51-2.1,5.46-4.99c0.23-0.7,0.05-2.24,0.1-2.97     c0.01-0.12-0.13-2.66-0.06-2.93c0.18-0.7,0.37-1.39,0.54-1.88c0.18-0.53,0.33-1.09,0.38-1.35     C23.05,64.76,22.27,64.24,21.46,64.57z" /></g></g><g
       id="g359"><path
         style="fill:#00BFA5;"
         d="M64,74.97V128h22.65c0,0,0-23.06,0-23.06c1.54,1.81,5.06,5.19,10.83,5.19    c5.16,0,8.36-5.27,10.15-9.19c0.01-0.03,8.97-20.5,8.97-20.5c0.11-0.55-0.21-1.1-0.75-1.27l-8.69-2.61    c-0.56-0.18-1.16,0.12-1.36,0.67L95.5,89.82c-7.25-13.05-18.82-14.6-27.07-14.6C66.58,75.21,68.43,75.05,64,74.97z"
         id="path361" /><g
         id="XMLID_1576_"><path
           id="XMLID_1578_"
           style="fill:#E0E0E0;"
           d="M106.54,64.57c0.88,0.36,1.6,0.95,1.89,1.73c0.22,0.58,0.25,0.79,0.42,2.39     c0.85,1.45,3-1.08,3.65-1.92c0.04-0.05,3.68-5.08,4.27-5.96c0.69-1.03,1.54-1.34,2.25-0.87c0.76,0.51,0.36,1.79,0.01,2.32     c-0.54,0.81-1.72,2.8-3.06,4.63c0,0-0.12,0.19-0.1,0.25c0.09,0.48,0.62,0.28,0.62,0.28c1.24-1.17,4.09-4.15,4.74-4.83     c1.12-1.18,2.01-1.41,2.63-0.83c0.82,0.76,0.41,1.7-0.69,2.85c-0.66,0.69-2.7,2.75-4.53,4.75c-0.2,0.82,0.59,0.69,0.59,0.69     c1.99-1.66,4.01-3.49,4.65-3.98c1.03-0.8,1.76-0.93,2.33-0.3c0.6,0.66,0.33,1.4-0.8,2.39c-0.81,0.71-3.31,2.96-4.63,4.07     c-0.53,0.9,0.37,0.96,0.37,0.96c2.04-1.49,2.51-1.78,3.06-2.12c1.15-0.73,1.72-0.75,2.18-0.03c0.5,0.81-0.04,1.43-0.99,2.18     c-0.64,0.5-5,3.82-6.53,5.33c-2.35,2.32-5.56,2.39-7.26,1.76c-2.39-0.88-4.51-2.1-5.46-4.99c-0.23-0.7-0.05-2.24-0.1-2.97     c-0.01-0.12,0.13-2.66,0.06-2.93c-0.18-0.7-0.37-1.39-0.54-1.88c-0.18-0.53-0.33-1.09-0.38-1.35     C104.95,64.76,105.73,64.24,106.54,64.57z" /></g></g><g
       id="g365"><path
         id="XMLID_1570_"
         style="fill:#35201A;"
         d="M63.97,82.53L63.97,82.53c-3.67,0-6.65-2.98-6.65-6.65v-5.69h13.3v5.69    C70.62,79.55,67.64,82.53,63.97,82.53z" /><g
         id="XMLID_1560_"><g
           id="XMLID_1567_"><path
             id="XMLID_1569_"
             style="fill:#563E37;"
             d="M83.98,47.62c0,0,3.67,0.64,3.67,4.59c0,3.49-2.68,4.86-5.35,4.86v-9.45H83.98z      " /><path
             id="XMLID_1568_"
             style="fill:#563E37;"
             d="M43.96,47.62c0,0-3.67,0.64-3.67,4.59c0,3.49,2.68,4.86,5.35,4.86v-9.45H43.96z      " /></g><path
           id="XMLID_1566_"
           style="fill:#70534A;"
           d="M63.97,21.74c-15.81,0-19.95,12.26-19.95,29.48c0,17.86,11.48,22.47,19.95,22.47     c8.35,0,19.95-4.48,19.95-22.47C83.92,34,79.78,21.74,63.97,21.74z" /><path
           id="XMLID_1565_"
           style="fill:#232020;"
           d="M57.4,52.82c0,1.78-1.19,3.22-2.66,3.22c-1.47,0-2.67-1.44-2.67-3.22     c0-1.78,1.2-3.22,2.67-3.22C56.21,49.6,57.4,51.04,57.4,52.82" /><path
           id="XMLID_1564_"
           style="fill:#232020;"
           d="M70.53,52.82c0,1.78,1.19,3.22,2.67,3.22c1.47,0,2.67-1.44,2.67-3.22     c0-1.78-1.2-3.22-2.67-3.22C71.72,49.6,70.53,51.04,70.53,52.82" /><path
           id="XMLID_1563_"
           style="fill:#232020;"
           d="M69.74,63.7c-0.81,0-5.77,0-5.77,0s-4.97,0-5.77,0c-0.66,0-0.95,0.45-0.51,1.11     c0.61,0.93,2.89,2.73,6.28,2.73c3.39,0,5.67-1.79,6.28-2.73C70.69,64.14,70.4,63.7,69.74,63.7z" /><path
           id="XMLID_1562_"
           style="fill:#3C2B24;"
           d="M66.76,58.79c-0.98,0.28-2,0.41-2.79,0.41c-0.79,0-1.81-0.14-2.79-0.41     c-0.42-0.12-0.59,0.28-0.43,0.54c0.31,0.55,1.57,1.65,3.22,1.65c1.66,0,2.91-1.11,3.22-1.65C67.34,59.07,67.18,58.67,66.76,58.79     z" /><path
           id="XMLID_1561_"
           style="fill:#312D2D;"
           d="M64.44,19.49c0,0-0.31-0.01-0.44-0.01c-0.13,0-0.44,0.01-0.44,0.01     c-17.06,0.33-22.21,10.6-22.21,17.72c0,6.92,0.01,12,0.01,12s0.27-0.28,0.77-0.67c0.53-0.42,1.13-0.65,1.13-0.65l0.86,5.78     l5.69-11.88c0.03-0.07,0.11-0.12,0.19-0.11l3.37,0.37c3.39,0.38,6.79,0.56,10.19,0.57v0.01c0.15,0,0.29,0,0.44,0     c0.15,0,0.29,0,0.44,0v-0.01c3.4-0.01,6.81-0.19,10.19-0.57l3.37-0.37c0.08-0.01,0.16,0.03,0.19,0.11l5.69,11.88l0.86-5.78     c0,0,0.59,0.23,1.13,0.65c0.5,0.39,0.77,0.67,0.77,0.67s0.01-5.08,0.01-12C86.65,30.09,81.51,19.82,64.44,19.49z" /></g><g
         id="g378"><ellipse
           style="fill:#6E7177;"
           cx="64"
           cy="40.8"
           rx="26.48"
           ry="6.92"
           id="ellipse380" /><ellipse
           style="fill:#8E8E8E;"
           cx="64"
           cy="39.55"
           rx="26.48"
           ry="6.92"
           id="ellipse382" /><g
           id="g384"><defs
             id="defs386"><path
               id="SVGID_1_"
               d="M87.64,38.61L87.64,38.61c-0.39-7.45-6.01-19.97-23.18-20.29c0,0-0.32-0.01-0.46-0.01       c-0.14,0-0.46,0.01-0.46,0.01c-17.17,0.32-22.79,12.84-23.18,20.29l0,0C40.36,44.45,87.64,44.45,87.64,38.61z" /></defs><use
             xlink:href="#SVGID_1_"
             style="overflow:visible;fill:#6E7177;"
             id="use389" /><clipPath
             id="SVGID_2_"><use
               xlink:href="#SVGID_1_"
               style="overflow:visible;"
               id="use392" /></clipPath></g></g></g><rect
       x="41.35"
       y="113.68"
       style="fill:#6E7177;"
       width="45.3"
       height="14.32"
       id="rect394" /><g
       id="g396"><polygon
         style="fill:#6E7177;"
         points="52.55,122.14 46.58,122.14 46.58,76.36 52.55,74.99   "
         id="polygon398" /><polygon
         style="fill:#6E7177;"
         points="81.42,122.14 75.45,122.14 75.45,74.99 81.42,76.36   "
         id="polygon400" /></g><g
       id="g402"><g
         id="g404"><g
           id="g406"><path
             d="M65.48,80.28c1.23-0.84,2.39-1.46,3.56-2.21c0.94-0.6,2.53-1.72,4.03-1.15c1.27,0.48,0.82,2.21,0.82,4.48      c0,2.66,0.45,4.21-0.55,4.65c-1.36,0.6-3.13-0.46-4.62-1.11c-0.85-0.37-3.27-1.47-3.68-2.11      C64.62,82.19,64.64,80.69,65.48,80.28z"
             id="path408" /><path
             style="fill:#444444;"
             d="M71.74,80.05c0.03,0.19-1.32,0.62-3,0.97c-1.68,0.35-3.07,0.48-3.1,0.29      c-0.03-0.19,1.32-0.62,3-0.97S71.71,79.86,71.74,80.05z"
             id="path410" /><path
             style="fill:#444444;"
             d="M71.76,83.21c-0.02,0.19-1.41,0.14-3.11-0.1c-1.7-0.24-3.06-0.59-3.04-0.78      c0.02-0.19,1.41-0.14,3.11,0.1C70.42,82.67,71.78,83.02,71.76,83.21z"
             id="path412" /></g><g
           id="g414"><path
             d="M62.52,80.28c-1.23-0.84-2.39-1.46-3.56-2.21c-0.94-0.6-2.53-1.72-4.03-1.15c-1.27,0.48-0.82,2.21-0.82,4.48      c0,2.66-0.45,4.21,0.55,4.65c1.36,0.6,3.13-0.46,4.62-1.11c0.85-0.37,3.27-1.47,3.68-2.11C63.38,82.19,63.36,80.69,62.52,80.28z      "
             id="path416" /><path
             style="fill:#444444;"
             d="M56.26,80.05c-0.03,0.19,1.32,0.62,3,0.97s3.07,0.48,3.1,0.29s-1.32-0.62-3-0.97      S56.29,79.86,56.26,80.05z"
             id="path418" /><path
             style="fill:#444444;"
             d="M56.24,83.21c0.02,0.19,1.41,0.14,3.11-0.1c1.7-0.24,3.06-0.59,3.04-0.78      c-0.02-0.19-1.41-0.14-3.11,0.1C57.58,82.67,56.22,83.02,56.24,83.21z"
             id="path420" /></g></g><path
         d="M66.71,81.89c0,1.54-1.21,2.43-2.71,2.43c-1.5,0-2.71-0.89-2.71-2.43S61.97,79.1,64,79.1    C65.95,79.1,66.71,80.35,66.71,81.89z"
         id="path422" /></g></g><g
     id="g424"><circle
       style="fill:#FF3D00;"
       cx="12.13"
       cy="66.46"
       r="7.74"
       id="circle426" /><circle
       style="fill:#FFFFFF;"
       cx="9.82"
       cy="64"
       r="2.31"
       id="circle428" /></g><g
     id="g430"><circle
       style="fill:#00C853;"
       cx="22.85"
       cy="30.89"
       r="7.74"
       id="circle432" /><circle
       style="fill:#FFFFFF;"
       cx="20.53"
       cy="28.43"
       r="2.31"
       id="circle434" /></g><g
     id="g436"><circle
       style="fill:#FF6D00;"
       cx="56.26"
       cy="9.47"
       r="7.74"
       id="circle438" /><circle
       style="fill:#FFFFFF;"
       cx="53.95"
       cy="7.02"
       r="2.31"
       id="circle440" /></g><g
     id="g442"><circle
       style="fill:#AA00FF;"
       cx="95.97"
       cy="19.48"
       r="7.74"
       id="circle444" /><circle
       style="fill:#FFFFFF;"
       cx="93.65"
       cy="17.03"
       r="2.31"
       id="circle446" /></g><g
     id="g448"><circle
       style="fill:#29B6F6;"
       cx="115.87"
       cy="49.6"
       r="7.74"
       id="circle450" /><circle
       style="fill:#FFFFFF;"
       cx="113.55"
       cy="47.14"
       r="2.31"
       id="circle452" /></g></svg>
